X: 36997
T: Sidney Forlong
R: hornpipe
M: 4/4
K: Gdorian
|:G,3A, B,C DG|E2 C2 C2 CD|E2 F2 D2 A,B,|C2 DB, A,4|
G,3A, B,C DG|E2 C2 C2 FD|B,3B, G,B, DG|1 E2 C2 C2 B,A,:|2 E2 C2 C2 DE||
|:F2 G4 GF|E2 ED C2 CD|E2 F4 DE|F2 G4 DE|
F2 G3 F E2-|ED C2 C2 B,C|DB, G,2 G,B, DG|1 E2 C2 C2 DE:|2 E2 C2 C4||

